X: 1
T: A Mhisg A Chur An Lolig Oirn
M: 4/4
L: 1/8
R: strathspey
K: Dmaj
e>AA<A B<GG<B | A<Af>e d<BB<a | e>AA<A B<GG>B | A<Af>e d2d>a:||:f>df<a f>df<a | e>Ae<f d<BB>f | f>df<a f>df<a | e>Ae<f d2d>a | f>df<a f>df<a | e>Ae>f d<BB>e | d<aa>f e>de<f | g>ag>e d2d2 ||
